X:1
T:Bending Time
C:Ali Ellacott 2006
M:6/8
L:6/8
K:Dm
%
\def\bassnote#1{%
\setbox0=\hbox{\raise-12pt\hbox{#1}}\wd0=0pt\dp0=0pt\box0}
%
A | "Dm"def "A7"ed^c | "Dm"dFG A3-\
\qspace
| "Gm"ABA E3-\
\qspace
| "A"EAG ^C2 A |\
 "Dm"def "A"ed^c | "Dm"dFG "F"A2 A |
 "Gm"GAB "A7"AGE | "Dm"F2 D-D2 :|\
F | "C"E2 E-EDE | "Bb"F2 F-FEF | "Gm"G2 G-GFG | "A"A3\
\qspace
 A2 F |
 "C"E2 E-EDE | "Bb"F2 F-FEF | "Gm"GAB AGE | "Dm"F2 D-D2 F ||\
 "A"E2 E-"{}\bassnote{c\#}"EDE | "Dm"F2 F-"{}\bassnote{f}"FEF |
 "Gm"G2 G-"{}\bassnote{g\#}E7"GFG | "A"A3-\
\qspace
A2 A |\
 "A"aAa gGg | "\kern-0.4em{(A)}"fFf eEe |\
 "Bb"def "{}\bassnote{c\#}A"ed^c | "Dm"d2 D-D2 |]
